svgs/regular/delete-left.svg

<svg xmlns="http://www.w3.org/2000/svg" viewBox="0 0 576 512"><!-- Font Awesome Pro 6.0.0-alpha2 by @fontawesome - https://fontawesome.com License - https://fontawesome.com/license (Commercial License) --><path d="M512 64H205.25C188.25 64 172 70.75 160 82.75L9.375 233.375C-3.125 245.875 -3.125 266.125 9.375 278.625L160 429.25C172 441.25 188.25 448 205.25 448H512C547.375 448 576 419.375 576 384V128C576 92.625 547.375 64 512 64ZM528 384C528 392.822 520.822 400 512 400H205.25C200.982 400 196.967 398.334 193.941 395.309L54.633 256L193.941 116.691C196.967 113.666 200.982 112 205.25 112H512C520.822 112 528 119.178 528 128V384ZM432.969 175.031C423.594 165.656 408.406 165.656 399.031 175.031L352 222.062L304.969 175.031C295.594 165.656 280.406 165.656 271.031 175.031S261.656 199.594 271.031 208.969L318.062 255.998L271.031 303.029C261.656 312.404 261.656 327.592 271.031 336.967C280.404 346.34 295.588 346.348 304.969 336.967L352 289.936L399.031 336.967C408.404 346.34 423.588 346.348 432.969 336.967C442.344 327.592 442.344 312.404 432.969 303.029L385.937 255.998L432.969 208.969C442.344 199.594 442.344 184.406 432.969 175.031Z"/></svg>

<svg xmlns="http://www.w3.org/2000/svg" viewBox="0 0 576 512"><!--! Font Awesome Pro 6.4.0 by @fontawesome - https://fontawesome.com License - https://fontawesome.com/license (Commercial License) Copyright 2023 Fonticons, Inc. --><path d="M205.3 64c-17 0-33.3 6.7-45.3 18.7L9.4 233.4c-6 6-9.4 14.1-9.4 22.6s3.4 16.6 9.4 22.6L160 429.3c12 12 28.3 18.7 45.3 18.7H512c35.3 0 64-28.7 64-64V128c0-35.3-28.7-64-64-64H205.3zM528 128V384c0 8.8-7.2 16-16 16H205.3c-4.2 0-8.3-1.7-11.3-4.7L54.6 256 193.9 116.7c3-3 7.1-4.7 11.3-4.7H512c8.8 0 16 7.2 16 16zm-95 47c-9.4-9.4-24.6-9.4-33.9 0l-47 47-47-47c-9.4-9.4-24.6-9.4-33.9 0s-9.4 24.6 0 33.9l47 47-47 47c-9.4 9.4-9.4 24.6 0 33.9s24.6 9.4 33.9 0l47-47 47 47c9.4 9.4 24.6 9.4 33.9 0s9.4-24.6 0-33.9l-47-47 47-47c9.4-9.4 9.4-24.6 0-33.9z"/></svg>
